svg/leaf_maple_off.svg

<svg xmlns="http://www.w3.org/2000/svg" viewBox="0 0 24 24"><path d="M18.11 14.91 8.2 5H10l2-3 2 3h2l-1.63 4.9L17.79 6l1 1.73 3.6.23-1.6 3.23 1 1.81zM2.39 1.73 1.11 3l4.34 4.34-.24.43-3.6.23 1.6 3.27-1 1.73L8 16l-1 2 4-.75V21h2v-3.75l2.91.55 4.93 4.93 1.27-1.27z"/></svg>

<?xml version="1.0" encoding="UTF-8"?><!DOCTYPE svg PUBLIC "-//W3C//DTD SVG 1.1//EN" "http://www.w3.org/Graphics/SVG/1.1/DTD/svg11.dtd"><svg xmlns="http://www.w3.org/2000/svg" xmlns:xlink="http://www.w3.org/1999/xlink" version="1.1" id="mdi-leaf-maple-off" width="24" height="24" viewBox="0 0 24 24"><path d="M18.11 14.91L8.2 5H10L12 2L14 5H16L14.37 9.9L17.79 6L18.79 7.73L22.39 7.96L20.79 11.19L21.79 13L18.11 14.91M2.39 1.73L1.11 3L5.45 7.34L5.21 7.77L1.61 8L3.21 11.27L2.21 13L8 16L7 18L11 17.25V21H13V17.25L15.91 17.8L20.84 22.73L22.11 21.46L2.39 1.73Z" /></svg>
